public/img/decorations/deco-dots-4.svg

<svg width="81" height="99" viewBox="0 0 81 99" fill="none" xmlns="http://www.w3.org/2000/svg">
<path d="M16.512 39.034C15.694 39.503 14.793 39.858 14.094 40.452C12.276 41.993 10.356 43.475 8.82596 45.278C6.21296 48.36 6.58998 51.078 9.57798 54.153C10.094 54.685 10.955 54.907 11.685 55.194C12.044 55.337 12.476 55.28 12.867 55.352C15.017 55.748 15.705 56.688 15.555 59.035C11.016 60.872 7.36398 59.407 4.22098 55.993C2.15998 53.756 0.741962 51.231 0.661962 48.11C0.632962 46.994 0.790977 45.962 1.37098 44.914C3.54698 40.972 6.52296 37.87 10.412 35.592C11.707 34.833 13.039 34.918 14.351 35.188C15.306 35.385 15.997 36.129 16.206 37.163C16.34 37.815 16.422 38.479 16.512 39.034Z" fill="black"/>
<path d="M15.697 74.223C12.558 75.928 10.693 78.761 9.33598 81.818C7.54498 85.852 9.06098 90.272 14.078 90.917C14.887 91.021 15.717 91.46 16.394 91.946C17.511 92.749 17.462 92.817 17.347 94.582C14.38 95.921 11.482 95.849 8.72196 94.045C7.45596 93.218 6.21997 92.335 5.04597 91.382C1.89797 88.829 0.949985 81.801 2.99699 78.751C4.01799 77.23 4.76297 75.515 5.83497 74.034C7.72997 71.419 10.22 70.101 13.702 71.617C14.943 72.155 15.049 73.297 15.697 74.223Z" fill="black"/>
<path d="M78.5449 75.006C76.3729 74.601 75.3419 76.242 74.1429 77.555C72.8619 78.959 72.1569 80.623 72.2269 82.559C72.3869 87.028 74.3889 90.526 78.0839 92.942C79.2399 93.698 79.3539 94.837 80.1699 95.958C79.5739 95.958 79.1369 95.825 78.8579 95.978C76.0829 97.503 74.0079 96.236 72.0439 94.367C70.2509 92.66 68.4229 91.002 67.2859 88.732C66.0829 86.332 65.3249 83.839 65.5929 81.135C66.0289 76.765 68.6159 73.762 71.8999 71.146C73.3389 70 74.8039 70.028 76.3999 70.414C77.5559 70.692 78.1069 71.489 78.2359 72.637C78.3159 73.379 78.4279 74.121 78.5449 75.006Z" fill="black"/>
<path d="M50.3418 83.795C47.8708 83.591 45.2398 83.449 42.7048 84.279C41.0388 88.606 42.7048 93.074 46.9178 95.201C48.1448 95.82 49.0408 96.512 49.3608 98.029C48.3408 98.302 47.3058 98.584 46.2688 98.859C45.2998 99.118 44.3958 98.97 43.4818 98.543C37.4038 95.701 33.8938 88.395 35.5428 81.908C35.7188 81.217 36.0308 80.558 36.2988 79.892C36.6208 79.089 37.2028 78.615 38.0698 78.451C41.0778 77.885 44.0858 77.664 47.1268 78.22C48.5698 78.485 49.5718 79.389 50.4468 80.41C51.2928 81.396 51.4728 82.543 50.3418 83.795Z" fill="black"/>
<path d="M78.367 7.67896C76.728 7.85196 75.308 8.00099 73.888 8.15199C72.019 8.34999 70.921 9.27497 70.372 11.176C69.458 14.353 69.804 17.353 71.183 20.254C71.49 20.9 72.251 21.386 72.896 21.802C74.689 22.958 76.613 23.942 77.738 26.096C75.463 27.089 73.3 27.21 71.023 26.032C65.492 23.173 63.347 18.18 63.968 12.031C64.157 10.158 64.874 8.31997 65.493 6.51597C66.048 4.90197 67.288 3.77699 68.946 3.48899C70.899 3.14999 72.905 3.07497 74.891 2.98597C75.942 2.93897 76.723 3.57297 77.149 4.50397C77.604 5.49397 77.938 6.53796 78.367 7.67896Z" fill="black"/>
<path d="M45.898 11.393C44.492 10.616 44.472 10.618 43.916 11.645C42.529 14.197 42.822 16.754 44.828 18.882C45.478 19.571 46.219 20.213 47.016 20.72C48.481 21.652 49.954 22.528 50.192 24.534C49.585 24.68 48.784 24.712 48.153 25.056C46.801 25.793 45.633 25.606 44.323 24.907C41.643 23.479 39.428 21.542 37.858 18.984C36.092 16.107 35.942 12.919 36.899 9.745C37.524 7.676 39.237 6.54302 41.2 5.90702C42.944 5.34102 44.739 4.91199 46.532 4.51999C48.641 4.05999 50.067 4.95502 50.714 7.04902C50.923 7.72402 51.066 8.42101 51.304 9.36701C50.204 9.76101 49.103 10.138 48.017 10.549C47.292 10.823 46.589 11.147 45.876 11.449L45.898 11.393Z" fill="black"/>
<path d="M19.6431 5.52198C18.6041 5.46998 17.909 5.46799 17.219 5.39399C15.08 5.16299 13.449 6.00099 12.369 7.80299C11.473 9.29899 10.721 10.88 9.90007 12.434C10.222 12.967 10.517 13.344 10.697 13.77C11.25 15.085 12.349 15.408 13.611 15.439C14.166 15.452 14.722 15.377 15.279 15.369C17.363 15.334 18.3261 16.139 18.6771 18.216C18.7301 18.522 18.7101 18.839 18.7241 19.13C13.6791 21.07 8.77708 19.623 5.57808 16.217C4.24008 14.791 3.58807 12.961 3.85307 10.912C4.19307 8.30596 5.33908 6.02299 6.79408 3.91099C7.83508 2.39799 9.59309 1.80197 11.2391 1.23597C12.4271 0.826969 13.739 0.693967 15.007 0.614967C17.064 0.485967 18.028 1.20798 18.757 3.16498C19.018 3.86498 19.2811 4.56298 19.6431 5.52198Z" fill="black"/>
<path d="M44.8359 43.951C44.5839 44.067 44.4469 44.168 44.2969 44.193C40.0179 44.92 39.9039 48.017 41.3909 51.291C42.1799 53.03 43.8169 54.395 45.1229 55.884C45.5369 56.354 46.0839 56.738 46.6349 57.048C48.2289 57.946 49.4869 59.055 49.4079 61.244C48.3509 61.41 47.1399 61.677 45.9199 61.754C45.4219 61.787 44.8589 61.477 44.3909 61.209C40.5649 59.016 37.5139 55.98 35.4109 52.143C33.4579 48.585 33.1489 44.837 35.5809 41.295C36.9579 39.289 39.1669 38.775 41.4309 38.563C42.2079 38.49 42.7529 38.969 43.1599 39.637C43.9489 40.933 44.6229 42.266 44.8359 43.951Z" fill="black"/>
<path d="M76.0799 56.7771C73.8919 57.3361 71.6839 57.078 69.5139 56.634C67.7349 56.269 66.5409 54.89 65.9769 53.335C64.9499 50.503 63.8829 47.5892 63.5389 44.6272C63.0189 40.1442 65.2439 37.073 70.0369 36.672C70.5139 36.632 70.9939 36.615 71.4709 36.621C74.4729 36.654 75.3849 37.559 75.6639 40.847C74.8769 40.847 74.0979 40.84 73.3179 40.848C70.7069 40.875 69.2299 42.4121 69.6129 44.9371C69.9199 46.9721 70.4179 48.985 70.9449 50.978C71.2749 52.235 72.1329 52.87 73.5349 53.043C76.1739 53.373 76.5329 54.0101 76.0799 56.7771Z" fill="black"/>
</svg>

<svg width="81" height="99" fill="none" xmlns="http://www.w3.org/2000/svg"><path d="M16.512 39.034c-.818.469-1.719.824-2.418 1.418-1.818 1.541-3.738 3.023-5.268 4.826-2.613 3.082-2.236 5.8.752 8.875.516.532 1.377.754 2.107 1.041.359.143.791.086 1.182.158 2.15.396 2.838 1.336 2.688 3.683-4.539 1.837-8.191.372-11.334-3.042C2.16 53.756.742 51.231.662 48.11c-.029-1.116.129-2.148.709-3.196 2.176-3.942 5.152-7.044 9.041-9.322 1.295-.759 2.627-.674 3.939-.404.955.197 1.646.941 1.855 1.975.134.652.216 1.316.306 1.871zm-.815 35.189c-3.139 1.705-5.004 4.538-6.361 7.595-1.791 4.034-.275 8.454 4.742 9.099.809.104 1.639.543 2.316 1.029 1.117.803 1.068.871.953 2.636-2.967 1.339-5.865 1.267-8.625-.537a44.053 44.053 0 01-3.676-2.663C1.898 88.829.95 81.801 2.997 78.751c1.021-1.521 1.766-3.236 2.838-4.717 1.895-2.615 4.385-3.933 7.867-2.417 1.241.538 1.347 1.68 1.995 2.606zm62.848.783c-2.172-.405-3.203 1.236-4.402 2.549-1.281 1.404-1.986 3.068-1.916 5.004.16 4.469 2.162 7.967 5.857 10.383 1.156.756 1.27 1.895 2.086 3.016-.596 0-1.033-.133-1.312.02-2.775 1.525-4.85.258-6.814-1.611-1.793-1.707-3.621-3.365-4.758-5.635-1.203-2.4-1.961-4.893-1.693-7.597.436-4.37 3.023-7.373 6.307-9.989 1.439-1.146 2.904-1.118 4.5-.732 1.156.278 1.707 1.075 1.836 2.223.08.742.192 1.484.309 2.369zm-28.203 8.789c-2.471-.204-5.102-.346-7.637.484-1.666 4.327 0 8.795 4.213 10.922 1.227.619 2.123 1.311 2.443 2.828-1.02.273-2.055.555-3.092.83-.97.259-1.873.111-2.787-.316-6.078-2.842-9.588-10.148-7.94-16.635.177-.691.489-1.35.757-2.016.322-.803.904-1.277 1.77-1.441 3.009-.566 6.017-.787 9.058-.231 1.443.265 2.445 1.169 3.32 2.19.846.986 1.026 2.133-.105 3.385zM78.367 7.679c-1.639.173-3.059.322-4.479.473-1.869.198-2.967 1.123-3.516 3.024-.914 3.177-.568 6.177.811 9.078.307.646 1.068 1.132 1.713 1.548 1.793 1.156 3.717 2.14 4.842 4.294-2.275.993-4.438 1.114-6.715-.064-5.531-2.859-7.676-7.852-7.055-14.001.189-1.873.906-3.711 1.525-5.515.555-1.614 1.795-2.739 3.453-3.027 1.953-.339 3.959-.414 5.945-.503 1.051-.047 1.832.587 2.258 1.518.455.99.789 2.034 1.218 3.175zm-32.469 3.714c-1.406-.777-1.426-.775-1.982.252-1.387 2.552-1.094 5.109.912 7.237a11.68 11.68 0 002.188 1.838c1.465.932 2.938 1.808 3.176 3.814-.607.146-1.408.178-2.039.522-1.352.737-2.52.55-3.83-.149-2.68-1.428-4.895-3.365-6.465-5.923-1.766-2.877-1.916-6.065-.959-9.239.625-2.069 2.338-3.202 4.301-3.838 1.744-.566 3.539-.995 5.332-1.387 2.109-.46 3.535.435 4.182 2.529.209.675.352 1.372.59 2.318-1.1.394-2.201.771-3.287 1.182-.725.274-1.428.598-2.141.9l.022-.056zM19.643 5.522c-1.039-.052-1.734-.054-2.424-.128-2.139-.231-3.77.607-4.85 2.409-.896 1.496-1.648 3.077-2.469 4.631.322.533.617.91.797 1.336.553 1.315 1.652 1.638 2.914 1.669.555.013 1.111-.062 1.668-.07 2.084-.035 3.047.77 3.398 2.847.053.306.033.623.047.914-5.045 1.94-9.947.493-13.146-2.913-1.338-1.426-1.99-3.256-1.725-5.305.34-2.606 1.486-4.889 2.941-7.001 1.041-1.513 2.8-2.109 4.445-2.675 1.188-.409 2.5-.542 3.768-.621 2.057-.129 3.021.593 3.75 2.55.261.7.524 1.398.886 2.357zm25.193 38.429c-.252.116-.39.217-.54.242-4.278.727-4.392 3.824-2.905 7.098.789 1.739 2.426 3.104 3.732 4.593.414.47.96.854 1.512 1.164 1.594.898 2.852 2.007 2.773 4.196-1.057.166-2.268.433-3.488.51-.498.033-1.061-.277-1.53-.545-3.825-2.193-6.876-5.229-8.98-9.066-1.952-3.558-2.261-7.306.17-10.848 1.378-2.006 3.587-2.52 5.85-2.732.778-.073 1.323.406 1.73 1.074.789 1.296 1.463 2.629 1.676 4.314zM76.08 56.777c-2.188.56-4.396.301-6.566-.143-1.78-.365-2.973-1.744-3.537-3.299-1.027-2.832-2.094-5.746-2.438-8.708-.52-4.483 1.705-7.554 6.498-7.955.477-.04.957-.057 1.434-.051 3.002.033 3.914.938 4.193 4.226-.787 0-1.566-.007-2.346.001-2.611.027-4.088 1.564-3.705 4.09.307 2.034.805 4.047 1.332 6.04.33 1.257 1.188 1.892 2.59 2.065 2.639.33 2.998.967 2.545 3.734z" fill="#000"/></svg>
